!!!!SEGMENT: sonata29-2.krn
!!!COM: Beethoven, Ludwig van
!!!CDT: 1770///-1827///
!!!OTL: Piano Sonata no. 29 in B-flat major
!!!OTP: hammerklavier
!!!OPS: 106
!!!OMV: 2
!!!OMD: SCHERZO\nAssai vivace. [half-dot] = 80
**kern	**kern	**dynam
*staff2	*staff1	*staff1/2
*Ipiano	*Ipiano	*Ipiano
*clefF4	*clefG2	*
*kcancel	*kcancel	*
*k[b-e-]	*k[b-e-]	*
*B-:	*B-:	*
*M3/4	*M3/4	*
*MM240	*MM240	*
8.B- (8.dL	(8.ddL	p <
16F 16cJk)	16a 16ffJk)	[[
=1	=1	=1
4A (4c	4cc (4ff	>
8B- 8d)	8f\ 8dd\)	]
8r	8r	.
8.G (8.B-L	(8.b-L<	<
16D 16AJk)	16f# 16ddJk)	[
=2	=2	=2
4F# (4A	4a/ ((4dd/	>
8G 8B-)	8d 8b-))	]
8r	8r	.
8.E- (8.GL	(8.gL	<
16BB- 16FnJk)	16d) 16b-Jk	[[
=3	=3	=3
4D (4F	4fn ((4b-	>
8E- 8G)	8B- 8g))	]
8r	8r	.
8.E- (8.GL	(8.B- 8.gL	<
16C 16FJk)	16e-) 16aJk	[[
=4	=4	=4
*^	*^	*
2ryy	4C [4F	4e- ((4a	2ryy	>
.	8D 8F]	8B- 8b-))	.	]
.	8r	8r	.	.
4F	(8.DL	(8.b-L	4f	<
.	16AAJk)	16ccJk)	.	[[
*v	*v	*	*	*
!!LO:LB:g=original
=5	=5	=5	=5
4AA\ [4F\	(4cc	[4f	>
8AA-\ 8F\]	8dd)	8f] 8b-	]
8r	8r	8r	.
8.AA- (8.FL<	(8.ddL	4b-	<
16GG 16E-Jk)	16ee-Jk)	.	.
=6	=6	=6	=6
4GG ((4E-	(4ee-	4b-	.
8FF 8D-))	8ff)	8f 8b- 8dd-	.
8r	8r	8r	.
8EEn 8C	8gg	8g 8b- 8cc	f
8r	8r	8r	.
*	*v	*v	*
=7	=7	=7
8FF 8F	8c 8a 8cc	.
8r	8r	.
4r	4r	.
*clefG2	*	*
8.b- (8.ddL<	(8.dddnL	p <
16f 16ccJk)	16aa 16fffJk)	[[
=8	=8	=8
4a (4cc	4ccc (4fff	>
8b- 8dd)	8ff 8ddd)	]
8r	8r	.
(8.g 8.b-L	(8.bb-L	<
16d) 16aJk	16ff# 16dddJk)	[[
=9	=9	=9
(4f# 4a	4aa (4ddd	>
8g) 8b-	8dd 8bb-)	]
8r	8r	.
(8.e- 8.gL	(8.ggL	<
16B-) 16fnJk	16dd 16bb-Jk)	[[
=10	=10	=10
(4d 4f	4ffn (4bb-	>
8e-) 8g	8b- 8gg)	]
8r	8r	<
(8.e- 8.gL	8.b- (8.ggL	.
16c 16fJk)	16ee- 16aaJk)	[[
!!LO:LB:g=original
=11	=11	=11
*	*^	*
(4c 4f	2ryy	4ee- (4aa	>
8d) 8f	.	8b- 8bb-)	]]
8r	.	8r	.
(8.ddL	(8.bb-L	4ff	<
16aJk)	16cccJk)	.	.
=12	=12	=12	=12
*^	*	*	*
4a/ ((4cc/	2ryy	(4ccc	[4ff	.
8a- 8b-))	.	8ddd)	8ff]	.
8r	.	8r	8r	.
4b-	(8.gL	(8.eee-L	4bb-	.
.	16g-Jk)	16eeenJk)	.	.
*v	*v	*	*	*
=13	=13	=13	=13
(4g- 4b-	(4eeen	4bb-	.
8f) 8cc	8fff)	8ff 8aa	.
8r	8r	8r	.
*clefF4	*	*	*
!	!	!	!LO:DY:cj
8C 8c	4ryy	8gg 8bb- 8eee 8ggg	f
8r	.	8r	.
*	*v	*v	*
=14	=14	=14
8F 8f	8ff 8aa 8fff	.
8r	8r	.
4r	4r	.
[4F [4f	8.bn (8.ddL	.
.	16dd 16ffJk)	.
=15	=15	=15
2F] 2f]	4dd (4ff	.
.	8bn 8dd)	.
.	8r	.
[4FF\ [4F\	(8.b 8.ddL	.
.	16ee- 16ggJk)	.
=16	=16	=16
2FF\] 2F\]	4ee- (4gg	.
.	8cc 8ee-)	.
.	8r	.
[4FF\ [4F\	(8.a 8.ccL	>
.	16cc 16ee-Jk)	]]
!!LO:LB:g=original
=17	=17	=17
2FF] 2F]	4cc (4ee-	.
.	8a 8cc)	.
.	8r	.
[4FFF [4FF	8.a (8.ccL	.
.	16dd- 16ffJk)	.
=18	=18	=18
2FFF] 2FF]	4ddn (4ff	.
.	8b- 8dd)	.
.	8r	.
([4FFF# [4FF#	(8.A 8.cL	.
.	16c) 16e-Jk	.
=19	=19	=19
4FFF#] 4FF#]	(2c 2e-	>
2GGG 2GG	.	.
.	4B- 4d	.
*	*clefF4	*
=20	=20	=20
4AAA 4AA	4A 4c	.
4BBB- 4BB-	4G 4B-	.
4BBBn 4BBn	[4F [4A	.
=21	=21	=21
2CC) 2C	4F] 4A]	.
.	4En 4G	pp
(4CC	[4E- [4G [4c	.
=22	=22	=22
*	*^	*
2GG)	2G]	4E-] 4c]	.
.	.	4D 4Bn)	.
*	*v	*v	*
4r	4r	.
*	*clefG2	*
!!LO:LB:g=original
=23	=23	=23
2.r	4r	.
.	4r	.
.	(8.BnL	pp
.	16dJk)	.
=24	=24	=24
*^	*^	*
4r	2ryy	(4d	2ryy	.
4r	.	8Bn)	.	.
.	.	8r	.	.
[4G	(8.GGL	(<8.bnL	[4d	.
.	16BBnJk)	16ddJk)	.	.
=25	=25	=25	=25	=25
4.G]	(4BBn	(<4dd	4.d]	.
.	8GG)	8bn)	.	.
8r	8r	8r	8r	.
*v	*v	*	*	*
*clefG2	*	*	*
*^	*	*	*
*ped	*	*	*	*
4ryy	(8.ccL	(8.cccL	4ryy	pp
.	16ee-Jk)	16eee-Jk)	.	.
*v	*v	*	*	*
*	*v	*v	*
=26	=26	=26
(4ee-	(4eee-	.
8cc)	8ccc)	.
*Xped	*	*
8r	8r	.
*clefF4	*	*
[4GG\ [4G\	(8.d 8.bnL	<
.	16f) 16ddJk	.
=27	=27	=27
2GG\] 2G\]	4f (>4dd	.
.	8d 8bn)	.
.	8r	.
[4CC [4C	(8.d 8.bL	.
.	16g) 16ee-Jk	.
=28	=28	=28
2CC] 2C]	(4g/ 4ee-/	.
.	8e- 8cc)	.
.	8r	.
[4FFF [4FF	8.a (8.ccL	f
.	16cc 16aaJk)	.
!!LO:LB:g=original
=29	=29	=29
4FFF] 4FF]	4cc (4aa	.
8FF 8F	8a 8ff)	.
8r	8r	.
8BBB- 8BB-	8b-X 8bb-X	.
8r	8r	.
=30	=30	=30
8BBB- 8BB-	8b- 8bb-	.
8r	8r	.
4r	4r	.
*clefG2	*	*
[4f [4ff	8.bbn (8.dddL	p
.	16ddd 16fffJk)	.
=31	=31	=31
2f] 2ff]	4ddd (4fff	.
.	8bbn 8ddd)	.
.	8r	.
*clefF4	*	*
[4F [4f	8.bb (8.dddL	.
.	16eee- 16gggJk)	.
=32	=32	=32
2F] 2f]	4eee- (4ggg	.
.	8ccc 8eee-)	.
.	8r	.
[4F [4f	8.aa (8.cccL	.
.	16ccc 16eee-Jk)	.
=33	=33	=33
2F] 2f]	(4ccc 4eee-	.
.	8aa 8ccc)	.
.	8r	.
[4FF\ [4F\	8.aa (8.cccL	.
.	16ddd- 16fffJk)	.
=34	=34	=34
2FF\] 2F\]	4dddn (4fff	.
.	8bb- 8ddd)	.
.	8r	.
[4FF#\ [4F#\	(8.a 8.ccL	p
.	16cc 16ee-Jk)	.
!!LO:LB:g=original
=35	=35	=35
4FF#] 4F#]	2cc (2ee-	>
4F# 4c (4e-	.	.
4G 4B- 4d	4b- 4dd	.
=36	=36	=36
4A 4c	4a/ 4cc/	.
4BB- 4G 4B-	4g 4b-	.
4BBn [4F [4A	[4f [4a	.
=37	=37	=37
*^	*	*
4F] 4A])	2C	4f] 4a]	.
4En 4G	.	4en 4g	.
([4c	4E- 4G	[4e- [4g [4cc	pp
=38	=38	=38	=38
*	*	*^	*
4c]	2G	4e-] 4cc]	2g]	.
4Bn)	.	4d 4bn)	.	.
4r	4r	4r	4r	.
*v	*v	*	*	*
*	*v	*v	*
=39	=39	=39
2.r	4r	.
.	4r	.
!	!	!LO:DY:rj
.	(8.bnL	pp
.	16ddJk)	.
=40	=40	=40
*^	*^	*
2ryy	4r	2ryy	(4dd	.
.	4r	.	8bn)	.
.	.	.	8r	.
!	!	!	!	!LO:DY:rj:b
[4g	8.GL	(<8.bbnL	[4dd	pp
.	16BnJk	16dddJk)	.	.
!!LO:LB:g=original
=41	=41	=41	=41	=41
4.g]	(4Bn	(4ddd	4.dd]	.
.	8G)	8bbn)	.	.
8r	8r	8r	8r	.
*ped	*	*	*	*
4ryy	(8.cL	4ryy	(8.ccL	pp
.	16e-Jk)	.	16ee-Jk)	.
*v	*v	*	*	*
*	*v	*v	*
=42	=42	=42
(4e-	(4ee-	.
8c)	8cc)	.
*Xped	*	*
8r	8r	.
[4G [4g	8.dd (8.bbnL	<
.	16ff 16dddJk)	.
=43	=43	=43
2G] 2g]	4ff (4ddd	.
.	8dd 8bbn)	.
.	8r	.
[4C [4c	8.dd (8.bbL	.
.	16gg 16eee-Jk)	.
=44	=44	=44
2C] 2c]	4gg (4eee-	.
.	8ee- 8ccc)	.
.	8r	.
[4FF [4F	8.aa (8.cccL	f
.	16ccc 16aaaJk)	.
=45	=45	=45
2FF] 2F]	4ccc (4aaa	.
.	8aa 8fff)	.
.	8r	.
8BBB- 8BB-	8bb-X 8bbb-X	.
8r	8r	.
=46	=46	=46
8BBB- 8BB-	8bb- 8bbb-	.
8r	8r	.
4r	4r	.
!!LO:LB:g=original
=||	=||	=||
*k[b-e-a-d-g-]	*k[b-e-a-d-g-]	*
!	!LO:TX:i:c:t=semplice	!
8BBB- 8BB-	[4dd- [4ddd-	.
8r	.	.
=47	=47	=47
8BBB- 8BB-	4dd-] 4ddd-]	.
8r	.	.
4r	4ff (4fff	.
!LO:PED:rj	!LO:TX:i:c:t=sempre legato	!
*ped	*	*
*Xtuplet	*	*
12BBB-L	[4dd- [4ddd-)	.
12FF	.	.
12D-J	.	.
=48	=48	=48
12BBB-L	4dd-] 4ddd-]	.
12FF	.	.
12D-J	.	.
12BBB-L	4b- (4bb-	.
12FF	.	.
12D-J	.	.
12BBB-L	4f 4ff)	.
12FF	.	.
12D-J	.	.
=49	=49	=49
12BBB-L	2b- (2bb-	<
12FF	.	.
12D-J	.	.
12BBB-L	.	.
12FF	.	.
12D-J	.	.
12BBB-L	4dd- 4ddd-	.
12FF	.	.
12D-J	.	.
=50	=50	=50
12BBB-L	2ff 2fff	.
12FF	.	.
12D-J	.	.
12BBB-L	.	.
12FF	.	.
12D-J	.	.
12BBB-L	4dd- 4ddd-	.
12FF	.	.
12D-J	.	.
=51	=51	=51
12BBB-L	2b- 2bb-	.
12FF	.	.
12D-J	.	.
12BBB-L	.	.
12FF	.	.
12D-J	.	.
12BBB-L	4f 4ff	.
12FF	.	.
12D-J	.	.
!!LO:LB:g=original
=52	=52	=52
12BBB-L	2b- 2bb-	.
12FF	.	.
*Xped	*	*
12D-J	.	.
12BBB-L	.	.
12FF	.	.
12D-J	.	.
!	!	!LO:HP:t=decresc.
12BBB-L	4dd- 4ddd-	>
12FF	.	.
12D-J	.	.
=53	=53	=53
!LO:PED:cj	!	!
*ped	*	*
12AAA-L	2ff 2fff	.
12FF	.	.
12D-J	.	.
12AAA-L	.	.
12FF	.	.
12D-J	.	.
12DD-L	4aa- 4aaa-	.
12FF	.	.
12D-J	.	.
=54	=54	=54
12DD-L	4dd- 4ddd-)	p
12FF	.	.
12D-J	.	.
12DD-L	4r	.
12FF	.	.
*Xped	*	*
12D-J	.	.
[4DD- [4D-	8b- 8bb-	.
.	8r	.
=55	=55	=55
4DD-] 4D-]	8b- 8bb-	.
.	8r	.
(4FF 4F	4r	.
!LO:PED:cj	!	!
*ped	*	*
*	*Xtuplet	*
[4DD-) [4D-	12dd-L<	.
.	12b-	.
.	12fJ	.
=56	=56	=56
4DD-] 4D-]	12dd-L<	.
.	12b-	.
.	12fJ	.
(4BBB- 4BB-	12ffL	.
.	12dd-	.
.	12b-J	.
4FFF) 4FF	12dd-L<	.
.	12b-	.
.	12fJ	.
!!LO:LB:g=original
=57	=57	=57
(<2BBB- 2BB-	12dd-L	<
.	12b-	.
.	12fJ	.
.	12b-L	.
.	12f	.
.	12d-J	.
4DD- 4D-	12fL	.
.	12d-	.
.	12B-J	.
=58	=58	=58
2FF 2F	12d- 12b-L	.
.	12B-	.
.	12d-J	.
.	12b-L	.
.	12d-	.
.	12B-J	.
4DD- 4D-	12f 12dd-L	.
.	12d-	.
.	12fJ	.
=59	=59	=59
2BBB- 2BB-	12ffL	.
.	12dd-	.
.	12b-J	.
.	12ffL	.
.	12dd-	.
.	12b-J	.
4FFF 4FF	12dd-L	.
.	12b-	.
.	12fJ	.
=60	=60	=60
2BBB- 2BB-	12b-L	>
.	12f	.
.	12d-J	]
.	12b-L	>
.	12f	.
.	12d-J	.
4CC 4D-	12fL	.
.	12d-	.
.	12B-J	.
=61	=61	=61
2FF 2F	12d- 12a-L	.
.	12A-	.
.	12d-J	.
.	12a-L	.
.	12f	.
.	12d-J	.
4AA-/ 4A-/	12f 12dd-L	.
.	12d-	.
.	12fJ	.
!!LO:LB:g=original
=62	=62	=62
!LO:PED:cj	!	!
*ped	*	*
4DD-) 4D-	12ffL	.
.	12dd-	.
.	12a-J	.
4r	12ffL	.
.	12dd-	.
.	12a-J	.
8DD- 8D-	12aa-L	.
.	12ff	.
8r	.	.
.	12dd-J	.
=63	=63	=63
8DD- 8D-	4f 4dd-	.
!	!LO:TX:c:i:t=sempre legato	!
8r	.	.
12DD-L	4r	.
12FF	.	.
12D-J	.	.
12DD-L	[4ff [4fff	.
12FF	.	.
12D-J	.	.
=64	=64	=64
12DD-L	4ff] 4fff]	.
12FF	.	.
12D-J	.	.
12DD-L	4aa- (4aaa-	.
12FF	.	.
12D-J	.	.
12DD-L	[4ff [4fff)	.
12FF	.	.
12D-J	.	.
=65	=65	=65
12DD-L	4ff] 4fff]	.
12FF	.	.
12D-J	.	.
12DD-L	4dd- (4ddd-	.
12FF	.	.
12D-J	.	.
12DD-L	4a- 4aa-)	.
12FF	.	.
12D-J	.	.
=66	=66	=66
12DD-L	2dd- (2ddd-	<
12FF	.	.
12D-J	.	.
12DD-L	.	.
12FF	.	.
12D-J	.	.
12AAA-L	4ff 4fff	.
12FF	.	.
12D-J	.	.
!!LO:LB:g=original
=67	=67	=67
12AAA-L	2aa- 2aaa-	.
12FF	.	.
12D-J	.	.
12AAA-L	.	.
12FF	.	.
12D-J	.	.
12AAA-L	4ff 4fff	.
12FF	.	.
12D-J	.	.
=68	=68	=68
*ped	*	*
12BBB-L	2dd- 2ddd-	.
12FF	.	.
12D-J	.	.
12BBB-L	.	.
12FF	.	.
12D-J	.	.
12BBB-L	4b- 4bb-	.
12FF	.	.
12D-J	.	.
=69	=69	=69
!	!	!LO:HP:t=decresc.
12BBB-L	2f 2ff	>
12FF	.	.
12D-J	.	.
12BBB-L	.	.
12FF	.	.
12D-J	.	.
12BBB-L	4b- 4bb-	.
12FF	.	.
12D-J	.	.
=70	=70	=70
12FFFL	2dd- 2ddd-	.
12FF	.	.
12D-J	.	.
12FFFL	.	.
12FF	.	.
12D-J	.	.
12FFFL	4ff 4fff	.
12FF	.	.
12D-J	.	.
=71	=71	=71
12BBB-L	4b- 4bb-)	.
12FF	.	.
12D-J	.	.
4BBB-	4r	.
*Xped	*	*
[4FF [4F	8d- 8dd-	.
.	8r	.
!!LO:LB:g=original
=72	=72	=72
4FF] 4F]	8d- 8dd-	.
.	8r	.
4AA-/ ((4A-/	12d-L	.
.	12f	.
.	12dd-J	.
[4FF [4F))	12ffL	.
.	12dd-	.
.	12a-J	.
=73	=73	=73
4FF] 4F]	12ffL	.
.	12dd-	.
.	12a-J	.
!LO:PED:cj	!	!
*ped	*	*
(4DD- 4D-	12ff 12aa-L	.
.	12dd-	.
.	12a-J	.
4AAA-) 4AA-	12ffL	.
.	12dd-	.
.	12a-J	.
=74	=74	=74
(2DD- 2D-	12ffL	<
.	12dd-	.
.	12a-J	.
.	12dd-L<	.
.	12a-	.
.	12fJ	.
4FF 4F	12d- 12a-L	.
.	12A-	.
.	12d-J	.
=75	=75	=75
2AA-/ 2A-/	12f 12dd-L	.
.	12d-	.
.	12fJ	.
.	12dd-L<	.
.	12a-	.
.	12fJ	.
4FF 4F	12ffL	.
.	12dd-	.
.	12a-J	.
=76	=76	=76
2DD- 2D-	12aa-L	.
.	12ff	.
.	12dd-J	.
*Xped	*	*
.	12ffL	.
.	12dd-	.
.	12ffJ	.
!LO:PED:rj	!	!
*ped	*	*
4BBB- 4BB-	12ffL	.
.	12dd-	.
.	12fJ	.
!!LO:LB:g=original
=77	=77	=77
2FFF 2FF	12dd-L<	>
.	12b-	.
.	12fJ	]
.	12dd-L<	>
.	12b-	.
.	12fJ	.
4BBB- 4BB-	12b-L	.
.	12f	.
.	12d-J	.
=78	=78	=78
2DD- 2D-	12fL	p
.	12d-	.
.	12B-J	.
.	12fL	.
.	12d-	.
.	12B-J	.
4FF 4F	12d- 12b-L	.
.	12B-	.
.	12d-J	.
=79	=79	=79
4BBB-) 4BB-	12dd-L<	.
.	12b-	.
.	12fJ	.
4r	12dd-L<	.
.	12b-	.
.	12fJ	.
4r	12ffL	.
.	12dd-	.
.	12fJ	.
=80	=80	=80
!	!	!LO:DY:b=2:cj
12d-L	4b-	pp
12B-	.	.
12FJ	.	.
12d-L	4r	.
12B-	.	.
12FJ	.	.
12fL	4r	.
12d-	.	.
*Xped	*	*
12FJ	.	.
!!LO:LB:g=original
=81||	=81||	=81||
!!LO:TX:a:B:t=Presto
*M2/4	*M2/4	*
*MM300	*MM300	*
!	!	!LO:DY:rj
8B-	8b-	p
8r	8r	.
8d-	8dd-	.
8r	8r	.
=82	=82	=82
8c	8cc	.
8r	8r	.
8F	8f	.
8r	8r	.
=83	=83	=83
8f	8ff	.
8r	8r	.
8e-	8ee-	.
8r	8r	.
=84	=84	=84
8d-	8dd-	.
8r	8r	.
8c	8cc	.
8r	8r	.
=85	=85	=85
8B-	8b-	.
8r	8r	.
8d-	8dd-	.
8r	8r	.
=86	=86	=86
8c	8cc	.
8r	8r	.
8A-	8a-	.
8r	8r	.
=87	=87	=87
8c	8cc	.
8r	8r	.
8Gn	8gn	.
8r	8r	.
=88	=88	=88
2F	2f	.
!!LO:LB:g=original
=89	=89	=89
8FF 8FL<	8r	.
8r	8f 8a- 8ccL	<
8AA- 8A-J	8r	.
8r	8f 8a- 8ccJ	.
=90	=90	=90
8GGn 8GnL	8r	.
8r	8en 8b- 8ccL	.
8CC 8CJ	8r	.
8r	8e 8gn 8b- 8ccJ	.
=91	=91	=91
8C 8cL	8r	.
8r	8en 8gn 8ccL	.
8BB- 8B-J	8r	.
8r	8e 8g 8ccJ	.
=92	=92	=92
8AA- 8A-L	8r	.
8r	8f 8a- 8ccL	.
8GGn 8GnJ	8r	.
8r	8en 8b- 8ccJ	.
=93	=93	=93
8FF 8FL<	8r	.
8r	8f 8a- 8ccL>	.
8AA- 8A-J	8r	.
8r	8f 8a- 8cc 8ffJ	.
=94	=94	=94
8GGn 8GnL	8r	.
8r	8f 8b- 8cc 8ffL>	.
8C 8cJ	8r	.
8r	8en 8b- 8cc 8eenJ	.
=95	=95	=95
8AAn 8AnL<	8r	.
8r	8f 8cc 8ffL>	.
8FF 8FJ	8r	.
8r	8f 8cc 8ee-XJ	.
!!LO:LB:g=original
=96	=96	=96
8BB- 8B-L	8r	.
8r	8f 8b- 8dd-L	.
8C 8cJ	8r	.
8r	8e- 8an 8ccJ	.
=97	=97	=97
8D-L	8b- 8ff 8bb-L	ff
8d-	8rb	.
8BB-	8dd- 8ff 8bb- 8ddd-J	.
8B-J	8r	.
=98	=98	=98
8FFL<	8cc 8ff 8aan 8cccL	.
8F	8r	.
8EE-	8f 8an 8cc 8ffJ	.
8E-J	8r	.
=99	=99	=99
8DD-L	8ff 8bb- 8fffL	.
8D-	8rdd	.
8CC	8ee- 8ff 8aan 8eee-J	.
8CJ	8r	.
=100	=100	=100
8BBB-L	8dd- 8ff 8bb- 8ddd-L	.
8BB-	8rb	.
8AAAn	8cc 8ff 8cccJ	.
8AAnJ	8r	.
=101	=101	=101
8BBB-L	8b- 8dd- 8ff 8bb-L	.
8BB-	8rb	.
8BBB-	8dd- 8ff 8bb- 8ddd-J	.
8BB-J	8r	.
=102	=102	=102
8AAAnL	8cc 8ff 8cccL	.
8AAn	8r	.
8EE-	8f 8an 8cc 8ffJ	.
8E-J	8r	.
!!LO:LB:g=original
=103	=103	=103
8DD-L	8ff 8fffL	.
8D-	8rdd	.
8BBB-	8dd- 8bb- 8ddd-J	.
8BB-J	8r	.
=104	=104	=104
2FF 2F	2cc 2aan 2ccc	sf
*clefG2	*	*
=105	=105	=105
8d-L	8ff 8fffL	.
8dd-	8rdd	.
8B-	8bb- 8ddd-J	.
8b-J	8r	.
=106	=106	=106
4r	2aanz 2cccz	.
4ffz	.	.
=107||	=107||	=107||
*k[b-e-]	*k[b-e-]	*
4r	2a/z 2cc/z	.
4fz	.	.
=108	=108	=108
4r	2Az 2cz	.
*clefF4	*	*
4Fz	.	.
*	*clefF4	*
=109	=109	=109
4r	2AAz 2Cz	.
4FFz	.	.
=110	=110	=110
4r	[2AAAz [2CCz	.
!LO:DY:rj	!	!
[4FFFz	.	.
=111	=111	=111
2FFF_	2AAA_ 2CC_	.
!!LO:LB:g=original
=112	=112	=112
*MM350	*MM350	*
!!LO:TX:a:B:t=Prestissimo
4FFF;]	4AAA;] 4CC]	.
*cue	*cue	*
*tuplet	*	*
N(12FFFL	4ryy	.
12GGG	.	.
12AAAJ	.	.
=113-	=113-	=113-
8BBB-LL	2r	.
8CC	.	.
8DD	.	.
8EEnJJ	.	.
*	*tuplet	*
4ryy	12FFL	.
.	12GG	.
.	12AAJ	.
=114-	=114-	=114-
2ryy	8BB-LL	.
.	8C	.
.	8D	.
.	8EnJJ	.
12FL<	4ryy	.
12G	.	.
12AJ	.	.
=115-	=115-	=115-
8B-LL<	2r	.
8c	.	.
8d	.	.
8enJJ	.	.
*	*clefG2	*
4ryy	12fL	.
.	12g	.
.	12aJ	.
=116-	=116-	=116-
2r	8b-LL<	.
.	8cc	.
.	8dd	.
.	8eenJJ	.
*clefG2	*	*
12ffL<	4ryy	.
12gg	.	.
12aaJ	.	.
=117-	=117-	=117-
8bb-LL<	2r	.
8ccc	.	.
8ddd	.	.
8eeenJJ	.	.
*	*8va	*
12fL	12fffL<	.
12g	12ggg	.
12aJ	12aaaJ	.
=118-	=118-	=118-
8b-LL<	8bbb-LL<	.
8cc	8cccc	.
8dd	8dddd	.
8eenJJ	8eeeenJJ	.
*Xcue	*Xcue	*
8ff	8ffffN)	.
*	*X8va	*
8r;	8r;	.
*clefF4	*	*
!!LO:LB:g=original
=119||	=119||	=119||
!!LO:TX:a:B:t=Tempo 1ยบ
*M3/4	*M3/4	*
*MM240	*MM240	*
!LO:DY:rj	!	!
*ped	*	*
16FLL	16ee- 16gg-LL	.
16e-	16a	.
16F	16ee- 16gg-	.
16e-JJ	16aJJ	.
=120	=120	=120
16FLL	16ee- 16gg-LL	.
16e-	16a	.
16F	16ee- 16gg-	.
16e-JJ	16aJJ	.
16FLL	16ee- 16gg-LL	.
16e-	16a	.
16F	16ee- 16gg-	.
16e-JJ	16aJJ	.
4r	4r	.
=121	=121	=121
*Xped	*	*
4r	4r	.
4r	4r	.
!	!	!LO:DY:rj:i:t=%s dolce
8.B- (8.dL	(8.ddL	p <
16F 16cJk)	16a 16ffJk)	[[
=122	=122	=122
4A (4c	4cc (4ff	>
8B- 8d)	8f\ 8dd\)	]
8r	8r	.
8.G (8.B-L	(8.b-L<	<
16D 16AJk)	16f# 16ddJk)	[[
=123	=123	=123
4F# (4A	4a/ ((4dd/	>
8G 8B-)	8d 8b-))	]
8r	8r	.
8.E- (8.GL	(8.gL	<
16BB- 16FnJk)	16d) 16b-Jk	[[
=124	=124	=124
4D (4F	4fn ((4b-	>
8E- 8G)	8B- 8g))	]
8r	8r	.
8.E- (8.GL	(8.B- 8.gL	<
16C 16FJk)	16e-) 16aJk	[[
!!LO:LB:g=original
=125	=125	=125
*^	*^	*
2ryy	4C [4F	4e- (4a	2ryy	>
.	8D 8F]	8B- 8b-)	.	]
.	8r	8r	.	.
4F	(8.DL	(8.b-L	4f	<
.	16AAJk)	16ccJk)	.	[[
*v	*v	*	*	*
=126	=126	=126	=126
(4AA 4F	(4cc	4f	>
8AA-) 8F	8b- 8dd)	8f	]
8r	8r	8r	.
(8.AA- 8.FL	8.ddL	4b-	<
16GG) 16E-Jk	16ee-Jk	.	.
=127	=127	=127	=127
(4GG 4E-	(4ee-	4e- 4b-	>
8FF) 8D-	8dd- 8ff)	8f 8b-	]
8r	8r	8r	.
!	!	!	!LO:DY:rj
8EEn 8C	4ryy	8g 8b- 8cc 8gg	f
8r	.	8r	.
*	*v	*v	*
=128	=128	=128
8FF 8F	8c 8a 8cc	.
8r	8r	.
4r	4r	.
*clefG2	*	*
8.b- (8.ddL<	(8.dddL	p <
16f 16ccJk)	16aa 16fffJk)	[[
=129	=129	=129
*	*^	*
4a (4cc	(4fff	8r	>
.	.	[>8ffL	.
8b- 8dd)	8ddd)	8ffJ]	]
8r	8r	8r	.
(8.g 8.b-L	(8.bb-L>	4ryy	<
16d) 16aJk	16ff# 16dddJk)	.	[[
=130	=130	=130	=130
(4f# 4a	(4ddd	8r	>
.	.	[>8ddL	.
8g) 8b-	8bb-)	8ddJ]	]
8r	8r	8r	.
(8.e- 8.gL	(8.ggL>	4ryy	<
16B-) 16fnJk	16dd 16bb-Jk)	.	[[
!!LO:LB:g=original
=131	=131	=131	=131
(4d 4f	(4bb-	8r	>
.	.	[>8b-L	.
8e-) 8g	8gg)	8b-J]	]
8r	8r	8r	.
(8.e- 8.gL	(8.ggL	8.b-L	<
16c) 16fJk	16aaJk)	16ee-Jk	[[
=132	=132	=132	=132
(4c [4f	(4aa	8r	>
.	.	(8ee-L	.
8d) 8f]	8bb-)	8b-J)	]
8r	8r	8r	.
(8.ddL	(8.bb-L	4ff	<
16a 16ccJk)	16cccJk)	.	.
=133	=133	=133	=133
(4a/ 4cc/	(4ccc	8r	.
.	.	[>8ffL	.
8a-) 8b-	8ddd)	8ffJ]	.
8r	8r	8r	.
(8.g 8.b-L	(8.eee-L	4bb-	.
16g-) 16b-Jk	16eeenJk)	.	.
=134	=134	=134	=134
(4g- 4b-	(4eeen	8r	.
.	.	(8bb-L	.
8f) 8cc	8fff)	8aaJ)	.
8r	8r	8r	.
*clefF4	*	*	*
8C 8c	4ryy	8gg 8bb- 8eee 8ggg	f
8r	.	8r	.
*	*v	*v	*
=135	=135	=135
8F 8f	8ff 8aa 8fff	.
8r	8r	.
4r	4r	.
[4F [4f	8.bn (8.ddL	p
.	16dd 16ffJk)	.
=136	=136	=136
8F] 8fL]	4dd (4ff	.
(8F	.	.
8fJ)	8bn 8dd)	.
8r	8r	.
[4FF [4F	8.b (8.ddL	.
.	16ee- 16ggJk)	.
!!LO:LB:g=original
=137	=137	=137
8FF] 8FL]	4ee- (4gg	.
(8FF	.	.
8FJ)	8cc 8ee-)	.
8r	8r	.
[4FF [4F	8.a (8.ccL	.
.	16cc 16ee-Jk)	.
=138	=138	=138
*	*^	*
8FF] 8FL]	4cc (4ee-	8re	.
(8FF	.	[>8e-L	.
8FJ)	8a 8cc)	8e-J]	.
8r	8r	8r	.
[4FFF [4FF	4ryy	8.a (8.ccL	.
.	.	16dd- 16ffJk)	.
=139	=139	=139	=139
8FFF] 8FFL]	4ddn (4ff	8re	.
(8FFF	.	[>8fL	.
8FFJ)	8b- 8dd)	8fJ]	.
8r	8r	8r	.
([4FFF# [4FF#	4ryy	(8.A 8.cL	.
.	.	16c) 16e-Jk	.
*	*v	*v	*
=140	=140	=140
4FFF#] 4FF#]	(2c 2e-	>
[2GGG [2GG	.	.
*	*clefF4	*
.	4B- 4d	.
=141	=141	=141
4GGG] 4GG]	4A 4c	.
4AAA 4AA	4G 4B-	.
4BBB- 4BB-	[4F [4A	.
=142	=142	=142
4BBBn 4BBn	4F] 4A]	.
4CC) 4C	4En 4G	.
(4CC	[4E- [4G [4c	.
!!LO:LB:g=original
=143	=143	=143
*	*^	*
2GG)	2G]	4E-] 4c]	.
.	.	4D 4Bn)	.
4r	4r	4r	.
*	*v	*v	*
*	*clefG2	*
=144	=144	=144
2.r	4r	.
.	4r	.
.	(8.BnL	pp
.	16dJk)	.
=145	=145	=145
*^	*^	*
4r	4r	2ryy	(4d	.
4r	4r	.	8Bn)	.
.	.	.	8r	.
[4G	(>8.GGL	(<8.bnL	[4d	.
.	16BBnJk)	16ddJk)	.	.
=146	=146	=146	=146	=146
4.G]	(4BBn	(4dd	8dL]	.
.	.	.	[8d	.
.	8GG)	8bn)	8dJ]	.
4.ryy	8rGG	8r	4.r	.
*clefG2	*clefG2	*	*	*
*ped	*	*	*	*
.	(8.ccL	(8.cccL<	.	pp
.	16ee-Jk)	16eee-Jk)	.	.
*v	*v	*	*	*
*	*v	*v	*
=147	=147	=147
(4ee-	(4eee-	.
*Xped	*	*
8cc)	8ccc)	.
8r	8r	.
*clefF4	*	*
[4GG [4G	(8.d 8.bnL	<
.	16f) 16ddJk	.
=148	=148	=148
8GG] 8GL]	(4f 4dd	.
(8GG	.	.
8GJ)	8d) 8bn	.
8r	8r	.
[4CC [4C	(8.d 8.bL	.
.	16g) 16ee-Jk	.
!!LO:LB:g=original
=149	=149	=149
8CC] 8CL]	(4g/ 4ee-/	.
(8CC	.	.
8CJ)	8e-) 8cc	.
8r	8r	.
[4FFF [4FF	8.a (8.ccL	f
.	16cc 16aaJk)	.
=150	=150	=150
8FFF] 8FFL]	4cc (4aa	.
(8FF	.	.
8FJ)	8a 8ff)	.
8r	8r	.
8BBB- 8BB-	8b- 8bb-	.
8r	8r	.
=151	=151	=151
8BBB- 8BB-	8b- 8bb-	.
8r	8r	.
4r	4r	.
*clefG2	*	*
[4f [4ff	8.bbn (8.dddL	p >]
.	16ddd 16fffJk)	.
=152	=152	=152
8f] 8ffL]	4ddd (4fff	.
(8f	.	.
8ffJ)	8bbn 8ddd)	.
8r	8r	.
*clefF4	*	*
[4F [4f	8.bb (8.dddL	>]
.	16eee- 16gggJk)	.
=153	=153	=153
8F] 8fL]	4eee- (4ggg	.
(8F	.	.
8fJ)	8ccc 8eee-)	.
8r	8r	.
[4F [4f	8.aa (8.cccL	>]
.	16ccc 16eee-Jk)	.
=154	=154	=154
*	*^	*
8F] 8fL]	4ccc (4eee-	8r	.
(8F	.	[8ee-L	.
8fJ)	8aa 8ccc)	8ee-J]	.
8r	8r	8r	.
[4FF [4F	4ryy	8.aa (8.cccL	>
.	.	16ddd- 16fffJk)	]]
!!LO:LB:g=original
=155	=155	=155	=155
8FF] 8FL]	4dddn (4fff	8r	.
(8FF	.	[8ffL	.
8FJ)	8bb- 8ddd)	8ffJ]	.
8r	8r	8r	.
[4F# [4c [4e-	4ryy	8.a 8.ccL>	p
.	.	16cc 16ee-Jk	.
*	*v	*v	*
=156	=156	=156
4F#] 4c] 4e-]	2cc (2ee-	.
(<4F# 4c 4e-	.	.
4G 4B- 4d	4b- 4dd	>
=157	=157	=157
8A 8cL	4a/ 4cc/	.
8AAJk	.	.
4BB- 4G 4B-	4g 4b-	.
4BBn [<4Fn [>4A	[4f [4a	.
=158	=158	=158
*^	*	*
4F] 4A]	2C	4f] 4a]	.
4En 4G	.	4en 4g	.
4E- 4G [4c	4C	[4e- [4g [4cc	pp
=159	=159	=159	=159
*	*	*^	*
4c]	2G)	2g]	4e-] 4cc]	.
4Bn	.	.	4d 4g 4bn)	.
*	*	*v	*v	*
4r	4r	4r	.
*v	*v	*	*
=160	=160	=160
2.r	4r	.
.	4r	.
.	(8.bnL	pp
.	16ddJk)	.
!!LO:LB:g=original
=161	=161	=161
*^	*^	*
4r	4r	2ryy	(4dd	.
4r	4r	.	8bn)	.
.	.	.	8r	.
*	*	*v	*v	*
*	*	*clefF4	*
*	*	*^	*
[4GG	(8.GGGL	(8.BnL	[4D	pp
.	16BBBnJk)	16dJk)	.	.
=162	=162	=162	=162	=162
4GG]	(4BBBn	(4d	8DL]	.
.	.	.	[8D	.
4r	8GGG)	8Bn)	8DJ]	.
.	8rAAA	8r	8r	.
*v	*v	*	*	*
*	*v	*v	*
*clefG2	*clefG2	*
*^	*^	*
*ped	*	*	*	*
4ryy	(8.ccL	4ryy	(8.cccL	pp
.	16ee-Jk)	.	16eee-Jk)	.
*v	*v	*	*	*
*	*v	*v	*
=163	=163	=163
(4ee-	(4eee-	.
8cc)	8ccc)	.
*Xped	*	*
8r	8r	.
*clefF4	*	*
[4G [4g	8.dd (8.bbnL	.
.	16ff 16dddJk)	.
=164	=164	=164
8G] 8gL]	4ff (4ddd	<
(8G	.	.
8gJ)	8dd 8bbn)	.
8r	8r	.
[4C [4c	8.dd (8.bbL	.
.	16gg 16eee-Jk)	.
=165	=165	=165
8C] 8cL]	4gg (4eee-	.
(8C	.	.
8cJ)	8ee- 8ccc)	.
8r	8r	.
[4FF [4F	8.aa (8.cccL	f
.	16ccc 16aaaJk)	.
!!LO:LB:g=original
=166	=166	=166
8FF] 8FL]	4ccc (4aaa	.
(8FF	.	.
8FJ)	8aa 8fff)	.
8r	8r	.
8BBB- 8BB-	8bb- 8bbb-	.
8r	8r	.
=167	=167	=167
8BBB- 8BB-	8bb- 8bbb-	.
8r	8r	.
4r	4r	.
8BBBn 8BBn	8Bn 8bn	p
8r	8r	.
=168	=168	=168
8BBBn 8BBn	8Bn 8bn	.
8r	8r	.
4r	4r	.
8BBB- 8BB-	8bb-X 8bbb-X	f
8r	8r	.
=169	=169	=169
8BBB- 8BB-	8bb- 8bbb-	.
8r	8r	.
4r	4r	.
8BBBn 8BBn	8Bn 8bn	p
8r	8r	.
=170	=170	=170
8BBBn 8BBn	8Bn 8bn	>
8r	8r	.
4r	4r	.
8AAA# 8AA#	8A# 8a#	.
8r	8r	.
=171	=171	=171
8AAA# 8AA#	8A# 8a#	.
8r	8r	.
4r	4r	.
4r	(8.dL	.
.	16f#Jk)	.
!!LO:LB:g=original
=172	=172	=172
!	!LO:TX:B:a:t=Un poco ritardando	!
4r	(4f#	.
4r	8d)	.
.	8r	.
8BBBn 8BBn	8Bn 8bn	pp
8r	8r	.
=173	=173	=173
8BBBn 8BBn	8Bn 8bn	.
8r	8r	.
4r	4r	.
8BBB 8BB	8B 8b	.
8r	8r	.
=174	=174	=174
8BBBn 8BBn	8Bn 8bn	.
8r	8r	.
4r	4r	.
8BBB 8BB	8B 8b	<
8r	8r	.
=175||	=175||	=175||
*k[]	*k[]	*
!!LO:TX:a:B:t=Presto
*M4/4	*M4/4	*
*MM300	*MM300	*
4BBB 4BB	4B 4b	.
4BBB 4BB	4B 4b	.
4BBB 4BB	4B 4b	.
4BBB 4BB	4B 4b	.
=176	=176	=176
4BBB 4BB	4B 4b	.
4BBB 4BB	4b 4bb	.
4BBB 4BB	4b 4bb	.
4BBB 4BB	4b 4bb	.
=177	=177	=177
4BBB 4BB	4b 4bb	ff
4BBB 4BB	4bb 4bbb	.
4BBB 4BB	4bb 4bbb	.
4BBB 4BB	4bb 4bbb	.
!!LO:LB:g=original
=178	=178	=178
4BBB 4BB	4bb 4bbb	.
4BBB 4BB	4bb 4bbb	.
4BBB 4BB	4bb 4bbb	.
8BBB- 8BB-	8bb- 8bbb-	.
8r	8r	.
=179||	=179||	=179||
*k[b-e-]	*k[b-e-]	*
*M3/4	*M3/4	*
*MM240	*MM240	*
!!LO:TX:a:B:t=Tempo 1ยบ
8BBB- 8BB-	8bb- 8bbb-	.
8r	8r	.
4r	4r	.
!	!	!LO:HP:b=2
(8.B-L	(8.dL	p <
16FJk)	16fJk)	[[
=180	=180	=180
*	*^	*
!	!	!	!LO:HP:b=2
(<4A	(4f	8rA	>
.	.	(8cL	.
8B-)	8d)	8FJ)	]
8r	8r	8r	.
*clefG2	*	*	*
(8.b-L	(8.ddL>	4ryy	<
16fJk)	16ffJk)	.	[[
=181	=181	=181	=181
(4a	(4ff	8r	>
.	.	8ccL	.
8b-/)	8dd)	8fJ	]
8r	8r	8r	.
(8.bb-L	(>8.dddL>	4ryy	p
16ffJk)	16fffJk)	.	.
=182	=182	=182	=182
(4aa	(4fff	8r	pp
.	.	(8cccL	.
8bb-)	8ddd)	8ffJ)	.
8r	8r	8r	.
*	*v	*v	*
=||	=||	=||
*-	*-	*-
!!!RDF**kern: > = above
!!!RDF**kern: < = below
!!!RDF**kern: N = linked slur
!!!RDF**dynam: > = dim.
!!!verovio: beamFrenchStyle
!!!LOR: Durand 1915, plates 9327/9328, Paul Dukas, ed.
!!!PED: Dukas, Paul
!!!URL-github: https://github.com/craigsapp/beethoven-piano-sonatas/blob/main/kern/sonata29-2.krn
!!!URL-vhv: https://verovio.humdrum.org/?file=beethoven/sonatas/sonata29-2.krn
!!!URL-pdf: https://github.com/craigsapp/beethoven-piano-sonatas/blob/master/reference-edition/sonata29-2.pdf
!!!ENC: Craig Stuart Sapp
!!!END: 2008/07/17
!!!EED: Craig Stuart Sapp
!!!EEV: 2023/04/04
